X:1
T:Voyez le tort
T:Voyez le tort
T:Thomas Crecquillon
C:Thomas Crecquillon
%%score [ 1 2 3 4 ]
L:1/8
Q:1/4=96
M:2/2
K:F
V:1 treble nm="Superius" snm="S"
V:2 treble nm="Altus" snm="A"
V:3 treble-8 nm="Tenor" snm="T"
V:4 bass nm="Bass" snm="B"
V:1
 z4 F4- | F8 | B6 B2 | A2 F2 c2 c2 | d2 e2 f3 e | d2 c2 B2 A2- | A2 G2 A2 f2 | e2 d4 c2- | %8
w: Voy-||ez le|tort d'a- mour et|de for- tu- *||||
w: L'aul-||tre se|faint d'a- mi et|o- por- tu- *||||
 c2 B2 c4 | z2 A2 B4 | G4 F4 | z2 F2 B2 B2 | ABcA BAGF | G4 A2 c2 | c2 c2 d2 d2 | !fermata!c8 :: %16
w: * * ne,|l'un faict|le mal,|et def- fend|le- _ _ _ _ _ _ _|gue- rir, et|def- fend le gue-|rir,|
w: * * ne,|me don-|nant plus|que ne peult|re- * * * * * * *|que- rir, que|ne peult re- que-|rir.|
 c4 c2 B2 | A8 | z2 f4 e2 | d2 c2 B4 | A8 | z2 B2 B4 | z2 B4 A2- | A2 G2 A4 | z2 c2 d2 c2 | %25
w: Soub le tri-|but|d'ay- mer|et re- quer-|rir,|he- las,|he- las,|_ ma foy,|où est vos-|
w: |||||||||
 B2 A2 G4 | F8 | z2 F4 F2 | G8 | F4 z2 A2 | B6 A2 | G4 F4 | E4 z2 c2 | c2 c2 A4 | z2 A2 d3 c | %35
w: tre puis- san-|ce,|con- ten-|tez|moy, ou|me lais-|siez mou-|rir, mort|en mal- heur|m'est seul- le|
w: ||||||||||
 B2 A4 G2- | G2 F2 G2 B2 | A2 G2 F2 G2- | GF F4 E2 | F4 z2 c2 | c2 c2 A4 | z2 A2 d3 c | B2 A4 G2- | %43
w: sous- fis- san-|* * ce, m'est|seul- le souf- fis-|* * san- *|ce, mort|en mal- heur|m'est seul- le|souf- fis- san-|
w: ||||||||
 G2 F2 G2 B2 | A2 G2 F2 G2- | GF F4 E2 | F8 :| %47
w: * * ce, m'est|seul- le souf- fis-|* * san- *|ce.|
w: ||||
V:2
 C4 C2 C2 | D4 z2 D2 | F4 G4 | F2 A4 A2 | G4 F2 A2 | A2 A2 G2 F2- | F2 ED E2 A2- | A2 F2 A4 | %8
w: Voy- ez le|tort, voy-|ez le|tort d'a- mour|et de for-|tu- * * *|||
w: L'aul- tre se|faint, l'aul-|tre se|faint d'a- mi|et o- por-|tu- * * *|||
 G4 C4 | F4 z2 D2 | _E4 C4 | D2 F4 E2 | F2 A2 G2 F2- | F2 E2 F4- | F8- | !fermata!F8 :: A4 A2 G2 | %17
w: |ne, l'un|faict le|mal, et def-|fend le- gue- *|* * rir,|_||Soub le tri-|
w: |ne, me|don- nant|plus que ne|peult re- que- *|* * rir.|_|||
 F2 F2 E2 D2 | C2 A2 A2 A2 | F4 G4 | C2 F2 F4 | z2 G2 G4 | z2 G4 F2- | F2 E2 F4- | F4 z2 F2 | %25
w: but, soub le tri-|but d'ay- mer et|re- que-|rir, he- las,|he- las,|he- las|_ ma foy,|_ où|
w: ||||||||
 D2 F4 E2 | D4 C4 | D4 z2 D2 | _E4 E4 | D2 D2 F3 E | D2 G,A, B,C D2- | D2 C4 B,2 | C2 z E E2 E2 | %33
w: est vos- tre|puis- san-|ce, con-|ten- tez|moy, ou me lais-|siez mou- * * * *||rir, mort en mal-|
w: ||||||||
 C4 z2 F2 | F2 F2 D2 D2 | D2 F2 E2 D2- | D2 C4 B,2 |"^b" C2 E2 D2 C2- | C2 D2 C4 | A,8 | z4 z2 F2 | %41
w: heur, mort|en mal- heur m'est|seul- le souf- fis-|* san- *|||ce,|mort|
w: ||||||||
 F2 F2 D2 D2 | D2 F2 E2 D2- | D2 C4 B,2 |"^b" C2 E2 D2 C2- | C2 D2 C4 | A,8 :| %47
w: en mal- heur mest|seul- le souf- fis-|* san- *|||ce.|
w: ||||||
V:3
 A4 A2 A2 | B4 z2 d2- | d2 d2 _e4 | c2 c2 c2 A2 | B2 c2 A2 c2 | f3 e d2 c2 | d4 c2 A2 | %7
w: Voy- ez le|tort, voy-|* ez le|tort d'a- mour et|de for- tu- *|||
w: L'aul- tre se|faint, l'aul-|* tre se|faint d'a- mi et|o- por- tu _|_ _ _ _||
 c2 d2 e2 f2 | d4 f4 | c2 d4 B2 | c2 B4 A2 | B2 d2 d2 B2 | c2 f2 B2 d2 | c4 z2 A2 | A2 A2 B2 B2 | %15
w: ||ne, l'un faict|le mal, et|def- fend le gue-||rir, et|def- fend le gue-|
w: ||ne, me don-|nant plus que|ne peult re- que-||rir, que|ne peult re- que-|
 !fermata!A8 :: f4 e2 d2 | c4 z2 f2 | e2 d4 c2 | d2 f4 e2 | f2 c2 c4 | z2 _e2 e4 | %22
w: rir,|||||||
w: rir.|Soub le tri-|but d'ay-|mer et re|que- * *|rir, he- las,|he- las,|
"^b" z2 e2 d2 c2- | c2 B2 c2 c2 | d2 c2 B2 A2 | B2 c4 c2 | A2 B4 A2 | B4 z2 B2 | B4 c4 | %29
w: |||||||
w: he- las ma|_ _ foy, où|est vos- tre puis-|san- ce, [puis-|san- * *|ce,] con-|ten- tez|
 A2 A2 d3 c | B4 G2 A2 | B2 G2 A2 F2 | G2 c2 c2 c2 | A4 z2 A2 | d3 c B2 A2 | G2 c4 B2 | c4 d4 | %37
w: ||||||||
w: moy, ou me lais-|siez mou- *||rir, mort en mal-|heur, mort|en mal- heur m'est|seul- le souf-|fis- san-|
 c3 B A2 G2 | A2 B2 G4 | F2 c2 c2 c2 | A4 z2 A2 | d3 c B2 A2 | G2 c4 B2 | c4 d4 | c3 B A2 G2 | %45
w: ||||||||
w: ||ce, mort en mal-|heur m'est|seul- le souf- fis-|san- * *|||
 A2 B2 G4 | F8 :| %47
w: ||
w: |ce.|
V:4
 F,4 F,2 F,2 | B,,4 B,4- | B,2 B,2 _E,4 | F,8 | z2 C,2 F,4- | F,2 F,2 G,2 A,2 | B,4 A,2 D,2 | %7
w: Voy- ez le|tort, voy-|* ez- le|tort|d'a- mour|_ et de for-|tu- * *|
w: L'aul- tre se|faint, l'aul-|* tre se|faint|d'a- mi|_ et o- por-|tu- * *|
 A,2 B,2 A,2 F,2 | G,4 F,4- | F,2 F,2 G,4 | _E,4 F,2 F,2 | B,3 A, G,2 G,2 | F,4 z4 | C,4 F,3 F, | %14
w: |* ne,|_ l'un faict|le mal et|def- fend le gue-|rir,|et def- fend|
w: |* ne,|_ me don-|nant plus que|ne peult re- que-|rir,|que ne peilt|
 F,2 F,2 B,,C,D,E, | !fermata!F,8 :: F,4 A,2 B,2 | F,3 G, A,2 D,2 | A,2 D,2 A,4 | B,2 A,2 G,4 | %20
w: le gue- * * * *|rir,|Soub le tri-|but _ _ d'ay-|mer et re-|que- * *|
w: re- que- * * * *|rir.|||||
 F,8 | z2 _E,2 E,4 |"^b" z2 E,2 F,4 | G,4 F,4- | F,4 z2 F,2 | G,2 F,2 C,2 C,2 | D,3 E, F,4 | %27
w: rir,|he- las,|he- las|ma foy,|_ où|est vos- tre puis-|san- * *|
w: |||||||
 B,,4 z2 B,,2 | _E,4 C,4 | D,6 D,2 | G,6 F,2 |"^b" E,4 D,4 | C,8 | z2 F,2 F,2 F,2 | D,6 D,2 | %35
w: ce, con-|ten- tez|moy ou|me lais-|siez mou-|rir,|mort en mal-|heur m'est|
w: ||||||||
 G,2 F,2 G,2 B,2 | A,4 G,4 |"^-natural" C,4 D,2 E,2 | F,2 B,,2 C,4 | F,8 | z2 F,2 F,2 F,2 | %41
w: seul- le souf- fis-|san- ce,|m'est seul- le|souf- fis- san-|ce,|mort en mal-|
w: ||||||
 D,6 D,2 | G,2 F,2 G,2 B,2 | A,4 G,4 | C,4 D,2 E,2 | F,2 B,,2 C,4 | F,8 :| %47
w: heur m'est|seul- le souf- fis-|san- ce,|m'est seil- le|souf- fis- san-|ce.|
w: ||||||

